X: 838
T: Giderim Yolum Dağdır
C: (Anonim)
O: Turkey
F: http://compmusic.upf.edu/node/140
N: yeni-cargah--turku--curcuna--giderim_yolum--
N: makam= yeni-cargah
N: form= turku
N: usul= curcuna = 10/8
M: 10/8
L: 1/16
K: C    
Q: 1/4=252
%%MIDI tuningsystem comma53
z6f4f4e4d2  | d4 c2d4e8z2  | c6c4d4d4{e}c2  | \
w:   |   |   | 
d2e2 c2d2 B2c8z2  | 
w:   | 
z6f4f4e4d2  | d4 c2d4e8z2  | c6c4d4d4{e}c2  | \
w:   |   |   | 
d2e2 c2d2 B2c8z2  | 
w:   | 
z4 G2c4c4c6  | d4 c2d4e8z2  | .f4 e2g4f2 e2d6  | \
w:  Gi de rim  yo  |  lum  *  dağ dır    |  Vay  bu  ne  mey *  va  | 
f4 e2d4c8z2  | 
w:  lı  bağ *  dır    | 
z4 G2c4c4c6  | d4 c2d4e8z2  | .f4 e2g4f2 e2d6  | \
w:  Gi de rim  yo  |  lum  *  dağ dır    |  Vay  bu  ne  mey *  va  | 
f4 e2d4c8z2  | 
w:  lı  bağ *  dır    | 
z4 f2f4f4e4d2  | d4 c2d4e8z2  | c4 c6d4d2 e2c2  | \
w:  Ben  ka za nım   |  yâr  *  ye sin    |  Ni ce  ki  ca  | 
d4 c2d2 B2c8z2  | 
w:  nım  sağ *  *  dır    | 
z4 f2f4f4e4d2  | d4 c2d4e8z2  | c4 c6d4d2 e2c2  | \
w:  Ben  ka za nım   |  yâr  *  ye sin    |  Ni ce  ki  ca  | 
d4 c2d2 B2c8z2  | 
w:  nım  sağ *  *  dır    | 
z6f4f4e4d2  | d4 c2d4e8z2  | c4 c6d4d4{e}c2  | \
w:  Of  of   |  böy *  le  kâr    |  Bu  yıl  da  kal  | 
d2e2 c2d2 B2c8z2  | 
w:  dık  *  *  be *  kâr    | 
z6f4f4e4d2  | d4 c2d4e8z2  | c4 c6d4d4{e}c2  | \
w:  Of  of   |  böy *  le  kâr    |  Bu  yıl  da  kal  | 
d2e2 c2d2 B2c8z2  | 
w:  dık  *  *  be *  kâr    | 
z6f4f4e4d2  | d4 c2d4e8z2  | c6c4d4d4{e}c2  | \
w:   |   |   | 
d2e2 c2d2 B2c8z2  | 
w:   | 
z6f4f4e4d2  | d4 c2d4e8z2  | c6c4d4d4{e}c2  | \
w:   |   |   | 
d2e2 c2d2 B2c8z2  | 
w:   | 
z4 G2c4c4c6  | d4 c2d4e8z2  | .f4 e2g4f2 e2d6  | \
w:  Gi de rim  yo  |  lum  *  dağ dır    |  Vay  bu  ne  mey *  va  | 
f4 e2d4c8z2  | 
w:  lı  bağ *  dır    | 
z4 G2c4c4c6  | d4 c2d4e8z2  | .f4 e2g4f2 e2d6  | \
w:  Gi de rim  yo  |  lum  *  dağ dır    |  Vay  bu  ne  mey *  va  | 
f4 e2d4c8z2  | 
w:  lı  bağ *  dır    | 
z4 f2f4f4e4d2  | d4 c2d4e8z2  | c4 c6d4d2 e2c2  | \
w:  Ben  ka za nım   |  yâr  *  ye sin    |  Ni ce  ki  ca  | 
d4 c2d2 B2c8z2  | 
w:  nım  sağ *  *  dır    | 
z4 f2f4f4e4d2  | d4 c2d4e8z2  | c4 c6d4d2 e2c2  | \
w:  Ben  ka za nım   |  yâr  *  ye sin    |  Ni ce  ki  ca  | 
d4 c2d2 B2c8z2  | 
w:  nım  sağ *  *  dır    | 
z6f4f4e4d2  | d4 c2d4e8z2  | c4 c6d4d4{e}c2  | \
w:  Of  of   |  böy *  le  kâr    |  Bu  yıl  da  kal  | 
d2e2 c2d2 B2c8z2  | 
w:  dık  *  *  be *  kâr    | 
z6f4f4e4d2  | d4 c2d4e8z2  | c4 c6d4d4{e}c2  | \
w:  Of  of   |  böy *  le  kâr    |  Bu  yıl  da  kal  | 
d2e2 c2d2 B2c8z2  | 
w:  dık  *  *  be *  kâr    | 
|


